**kern	**kern	**dynam
*part1	*part1	*part1
*staff2	*staff1	*
*I"Piano	*	*
*clefF4	*clefG2	*
*k[b-e-a-]	*k[b-e-a-]	*
=1	=1	=1
2AA- 2D	2B- 2f	<
=	=	=
4.GG 4.E-	2B- 2g	[
8EE-	.	.
=	=	=
!	!	!LO:DY:a
4BB-	4G 4e-	p
4BB-	4A- 4d 4f	.
=	=	=
4EE- 4E-	8B- 8e- 8g	.
.	(8b-L	.
4r	8an	.
.	8b-J)	.
=	=	=
2AA- 2A-	2B- 2d 2f	<
=	=	=
4.GG 4.G	2B- 2e- 2g	[
8EE- 8E-	.	.
=	=	=
!	!	!LO:DY:a
4BB-	4G 4e-	p
4BB-	4A- 4d 4f	.
=	=	=
8EE-L	8G 8e-	.
8E-	8B-L 8e- 8g	.
8E-	8B- 8e- 8g	.
8E-J	8B-J 8e- 8g	.
=	=	=
8DDL	8r	.
8D	8B-L 8f 8a-	.
8D	8B- 8f 8a-	.
8DJ	8B-J 8f 8a-	.
=	=	=
*-	*-	*-
!!!system-decoration: {(s1,s2)}
